svg/Filled/info_filled.svg

<svg viewBox="0 0 24 24" xmlns="http://www.w3.org/2000/svg" width="24" height="24"><path d="M12.17 9.1c.66 0 1.2.54 1.2 1.2v6.32h1.58l.12.01a1.2 1.2 0 0 1 0 2.39H9.05a1.2 1.2 0 0 1 0-2.4h1.92V11.5H9.44a1.2 1.2 0 0 1 0-2.4zm-.45-4.07a1.5 1.5 0 1 1 .58 2.95 1.5 1.5 0 0 1-.58-2.95"/></svg>

<svg viewBox="0 0 24 24" xmlns="http://www.w3.org/2000/svg" width="24" height="24"><path d="M12.17 9.1C12.83 9.1 13.37 9.64 13.37 10.3L13.37 16.62L15.07 16.63A1.2 1.2 0 0 1 15.07 19.02L9.05 19.02A1.2 1.2 0 0 1 9.05 16.62L10.97 16.62L10.97 11.5L9.44 11.5A1.2 1.2 0 0 1 9.44 9.1ZM11.72 5.03a1.5 1.5 0 1 1 .58 2.95 1.5 1.5 0 0 1-.58-2.95"/></svg>
